X: 97
T: the Balk
%%VWML:Wrights-3753-p49-0
F: http://www.vwml.org/record/Wrights/3753/p49
%R: march,reel
B: Daniel Wright "Wright's Compleat Collection of Celebrated Country Dances" 1740 p.49
S: http://library.efdss.org/cgi-bin/dancebooks.cgi
Z: 2014 John Chambers <jc:trillian.mit.edu>
M: C|
L: 1/8
K: Gm
%-------------------------
[|\
G2 D4 B2 | G4 B4 | A2F2 f2c2 | A4 c4 |\
B2G2 d2g2 | ^f4 d4 | (ed)(cB) A2d2 | B4 G4 |]
[|\
G2Bc d2Bc | d2B2 G2B2 | A2AB c2AB | c2A2 F2f2 |\
d2ga b2ag | a2g2 ^f2=e^f | g2a2 a3g | g4 g4 |]
%-------------------------
%%begintext align
%% First Man take hands with his Partner, & lead her down
%% the middle, the man go on the Wo. side, and the Wo.
%% on the Man's, then 1st Man side with Foot & Elbow, %% the 2d wo. & 1st wo. side with Foot and Elbow the %% 2d Man, and turn Sides to their (own?) Places. %%endtext
%%sep 5 5 300
%%begintext align
%% Cross over with ther [sic] Partners, go round the 1st cu. %% till the 1st Man comes in 2d mans Place, & is two
%% in the 2d wo. Place, then 1st Man cross over
%% with the 1st wo. & 1st wo. 2d Man, then all 4 Clap
%% Hands, and Hands half round and turn single. %%endtext
%-------------------------
%%sep 2 4 300
T: the Farraway Wedding
T: Longways.
%R: slip-jig
B: Daniel Wright "Wright's Compleat Collection of Celebrated Country Dances" 1740 p.49
S: http://library.efdss.org/cgi-bin/dancebooks.cgi
Z: 2014 John Chambers <jc:trillian.mit.edu> M: 9/8
L: 1/8
K: A
%------------------------- [|\
cAA f2e cAA | cAA f2e gBB |\
cAA f2e cAA | BGB gae dBB |]
[|\
c2e fga ecA | c2e fga BGB |\
c2e fga ecA | BGB g(a/g/f/e/) dBB |]
[|\
c2A AcA AcA | c2A AcA BGB |\
d2A AcA AcA | (BG)B g(a/g/f/e/) dBB |] %-------------------------
%%begintext align
%% The 1st Man turn his Partner quite round with %% both Hands, then cast off behind the 2d Cu. and %% Double Figure with the 2d Cu. Then double
%% Figure with the 3d Cu. and lead thro' the Top. %% Then cast down into the 2d Cu. Place. %%endtext
%-------------------------
%%sep 2 4 300
